X:38
T:Are Ye Sleepin', Maggie
C:Robert Tannahill
C:Scottish
M:2/4
L:1/16
K:D major
%
"Bm"F2B2B2d2 | "A"c3B A2c2 | "Bm"d2B2 dcBA | "G"F2d2"A"c2B2 :|
"D"f4 Bcde | f3g fed2 | "A"e4 ABcd | e3a fedc |
"Bm"B3c d3e | f3e d3e | f2B2 dcBA | "G"F2d2"A"c2B2 ||
|: "Bm"FBdB FBdB | "G"GBdB GBdB | "A"Acec Acec | "D"fedc dcBA :|
